!!!COM:	Josquin des Prez
!!!CDT:	~1450-1521/08/27
!!!OPR:	Missa Sine nomine
!!!OTA:	Missa Ad fugam
!!!ONM:	4
!!!OTL:	Sanctus
!!!AGN:	Mass; Sanctus
!!!SCT:	NJE 12.2
!!!SCA:	New Josquin Edition 12.2
!!!voices: 4
!!!voices-OPR:	4
**kern	**text	**kern	**text	**kern	**text	**kern	**text
*staff4	*staff4	*staff3	*staff3	*staff2	*staff2	*staff1	*staff1
*Ivox	*	*Ivox	*	*Ivox	*	*Ivox	*
*I"Bassus	*	*I"Tenor	*	*I"Altus	*	*I"Superius	*
*I'B	*	*I'T	*	*I'A	*	*I'S	*
*>[A,B,C,D,E,F]	*>[A,B,C,D,E,F]	*>[A,B,C,D,E,F]	*>[A,B,C,D,E,F]	*>[A,B,C,D,E,F]	*>[A,B,C,D,E,F]	*>[A,B,C,D,E,F]	*>[A,B,C,D,E,F]
*>A	*>A	*>A	*>A	*>A	*>A	*>A	*>A
*clefF4	*	*clefGv2	*	*clefGv2	*	*clefG2	*
*k[]	*	*k[]	*	*k[]	*	*k[]	*
*M3/1	*	*M3/1	*	*M3/1	*	*M3/1	*
*met(O)	*	*met(O)	*	*met(O)	*	*met(O)	*
!!section: Sanctus
!!!OMD: Sanctus
!	!	!	!	!LO:TX:Y=28:t=Canon at the lower fifth (A-->T, 3 breves)	!	!	!
=1-	=1-	=1-	=1-	=1-	=1-	=1-	=1-
!	!	!	!	!LO:TX:Z=3:t=Tenor. In diapente sequentibus signis.	!	!	!
1.A	Sanc-	0.r	.	0.r	.	0a	Sanc-
1F	.	.	.	.	.	.	.
.	.	.	.	.	.	1a	-tus,
2D\	-tus,	.	.	.	.	.	.
=2	=2	=2	=2	=2	=2	=2	=2
2.D\	sanc-	0.r	.	0.r	.	2.a/	sanc-
4E\	.	.	.	.	.	4g/	.
2F\	.	.	.	.	.	2a/	.
2G\	.	.	.	.	.	1b-i	.
2D\	.	.	.	.	.	.	.
2G\	.	.	.	.	.	4a/	.
.	.	.	.	.	.	4g/	.
=3	=3	=3	=3	=3	=3	=3	=3
2.F\	.	0.r	.	0.r	.	2a/	.
.	.	.	.	.	.	2.b-i\	.
4G\	.	.	.	.	.	.	.
2A\	.	.	.	.	.	.	.
.	.	.	.	.	.	4a/	.
2c\	.	.	.	.	.	1a	.
1B-i	.	.	.	.	.	.	.
.	.	.	.	.	.	2g/	.
=4	=4	=4	=4	=4	=4	=4	=4
0A	.	0.r	.	0.r	.	2.a/	.
.	.	.	.	.	.	4g/	.
.	.	.	.	.	.	2e/	.
.	.	.	.	.	.	2f/	.
1A	-tus,	.	.	.	.	2e/	.
.	.	.	.	.	.	[2c/	.
=5	=5	=5	=5	=5	=5	=5	=5
2.A\	san-	0.r	.	0.r	.	2c/]	.
.	.	.	.	.	.	2f/	.
4G\	.	.	.	.	.	.	.
2A\	.	.	.	.	.	2e/	.
1B-i	.	.	.	.	.	2d/	.
.	.	.	.	.	.	2.f/	.
4A\	.	.	.	.	.	.	.
4G\	.	.	.	.	.	4e/	.
=6	=6	=6	=6	=6	=6	=6	=6
2A\	.	0.r	.	0.r	.	2c/	.
2.B-i\	.	.	.	.	.	2.d/	.
4A\	.	.	.	.	.	4c/	.
1A	.	.	.	.	.	2A/	.
.	.	.	.	.	.	1B-i	.
2G\	.	.	.	.	.	.	.
=7	=7	=7	=7	=7	=7	=7	=7
0.A	-ctus,	0.r	.	0e	Sanc-	1A	-tus,
.	.	.	.	.	.	2r	.
.	.	.	.	.	.	2A/	san-
.	.	.	.	1e	-tus,	2.c/	.
.	.	.	.	.	.	8B/L	.
.	.	.	.	.	.	8A/J	.
=8	=8	=8	=8	=8	=8	=8	=8
0.r	.	0.r	.	2.e\	sanc-	4c/	.
.	.	.	.	.	.	4d/	.
.	.	.	.	.	.	4e/	.
.	.	.	.	4d\	.	4f/	.
.	.	.	.	2e\	.	2g/	.
.	.	.	.	1f	.	2a/	.
.	.	.	.	.	.	2d/	.
.	.	.	.	4e\	.	2a/	.
.	.	.	.	4d\	.	.	.
=9	=9	=9	=9	=9	=9	=9	=9
0.r	.	0.r	.	2e\	.	2g/	.
.	.	.	.	2.f\	.	2.a/	.
.	.	.	.	4e\	.	4g/	.
.	.	.	.	1e	.	2e/	.
.	.	.	.	.	.	1f	.
.	.	.	.	2d\	.	.	.
=10	=10	=10	=10	=10	=10	=10	=10
1.AA	sanc-	0A	Sanc-	0.e	-tus,	2.e/	.
.	.	.	.	.	.	8d/L	.
.	.	.	.	.	.	8c/J	.
.	.	.	.	.	.	1c	-ctus,
2BB/	.	.	.	.	.	.	.
1C	.	1A	-tus,	.	.	2r	.
.	.	.	.	.	.	2c/	Do-
=11	=11	=11	=11	=11	=11	=11	=11
2.D\	.	2.A/	sanc-	0.r	.	1.f	.
4E\	.	4G/	.	.	.	.	.
2F\	.	2A/	.	.	.	.	.
1G	.	1B-i	.	.	.	2d/	-mi-
.	.	.	.	.	.	1g	-nus
4F\	.	4A/	.	.	.	.	.
4E\	.	4G/	.	.	.	.	.
=12	=12	=12	=12	=12	=12	=12	=12
2F\	.	2A/	.	0.r	.	2r	.
2G\	.	2.B-i\	.	.	.	2g/	Do-
2A\	.	.	.	.	.	2e/	-mi-
.	.	4A/	.	.	.	.	.
2AA/	.	1A	.	.	.	2c/	-nus
1BB-i	.	.	.	.	.	1d	de-
.	.	2G/	.	.	.	.	.
=13	=13	=13	=13	=13	=13	=13	=13
0AA	-tus,	0.A	-tus,	0c	san-	2c/	-us
.	.	.	.	.	.	2.cc\	sa-
.	.	.	.	.	.	4b\	.
.	.	.	.	.	.	4a/	.
.	.	.	.	.	.	4g/	.
1D	Do-	.	.	1d	-ctus,	4f/	.
.	.	.	.	.	.	4g/	.
.	.	.	.	.	.	4a/	.
.	.	.	.	.	.	4f/	.
=14	=14	=14	=14	=14	=14	=14	=14
2.C/	-mi-	0.r	.	1.e	Do-	1g	-ba-
8BB/L	.	.	.	.	.	.	.
8AA/J	.	.	.	.	.	.	.
2AA/	-nus	.	.	.	.	2c/	-oth,
2A\	de-	.	.	2e\	-mi-	2cc\	sa-
2G\	-us	.	.	1e	-nus	2b\	.
[2A\	sa-	.	.	.	.	[2cc\	.
=15	=15	=15	=15	=15	=15	=15	=15
4A\]	.	0.r	.	1c	de-	4cc\]	.
4G\	.	.	.	.	.	4b\	.
4F\	.	.	.	.	.	4a/	.
4E\	.	.	.	.	.	4g/	.
2D\	.	.	.	1d	.	2f/	.
2F\	.	.	.	.	.	2a/	-ba-
1E	-ba-	.	.	1e	-us	1g	-oth,
=16	=16	=16	=16	=16	=16	=16	=16
1D	-oth,	0F	san-	2.f\	sa-	2r	.
.	.	.	.	.	.	2.a/	sa-
.	.	.	.	4e\	.	.	.
1r	.	.	.	2d\	.	.	.
.	.	.	.	.	.	4f/	.
.	.	.	.	2c\	.	2a/	.
1E	Do-	1G	-ctus,	1B	-ba-	4g/	-ba-
.	.	.	.	.	.	4f/	.
.	.	.	.	.	.	4e/	.
.	.	.	.	.	.	4d/	.
=17	=17	=17	=17	=17	=17	=17	=17
1.F	.	1.A	Do-	0A	-oth,	0.c	-oth.
2F\	-mi-	2A/	-mi-	.	.	.	.
1F	-nus	1A	-nus	1c	de-	.	.
=18	=18	=18	=18	=18	=18	=18	=18
1D	de-	1F	de-	2d\	.	0.r	.
.	.	.	.	2f\	.	.	.
2C/	.	1G	.	2e\	.	.	.
2BB/	.	.	.	1d	.	.	.
1AA	.	1A	-us	.	.	.	.
.	.	.	.	2c\	.	.	.
=19	=19	=19	=19	=19	=19	=19	=19
2GG/	-us	2.B-i\	sa-	2d\	-us	0.r	.
2D\	sa-	.	.	2f\	sa-	.	.
.	.	4A/	.	.	.	.	.
2E\	.	2G/	.	2e\	.	.	.
2F\	.	2F/	.	1d	.	.	.
1G	.	1E	-ba-	.	.	.	.
.	.	.	.	2c#i\	-ba-	.	.
=20	=20	=20	=20	=20	=20	=20	=20
1GG	.	0D	-oth,	[0.dl	-oth.	1d	sa-
0D	-ba-	.	.	.	.	2.f/	-ba-
.	.	.	.	.	.	4g/	.
.	.	1F	de-	.	.	1a	-oth,
=21	=21	=21	=21	=21	=21	=21	=21
2GG/	-oth,	2G/	.	0.d_	.	2r	.
2G\	sa-	2B-i\	.	.	.	2.dd\	sa-
2F\	.	2A/	.	.	.	.	.
.	.	.	.	.	.	4cc\	.
2G\	.	1G	.	.	.	2b\	.
1D	-ba-	.	.	.	.	1a	-ba-
.	.	2F/	.	.	.	.	.
=22	=22	=22	=22	=22	=22	=22	=22
2GG/	-oth,	2G/	-us	0.d_	.	2g/	-oth,
2G\	sa-	2B-i\	sa-	.	.	2.d/	sa-
2F\	.	2A/	.	.	.	.	.
.	.	.	.	.	.	4c/	.
2G\	.	1G	.	.	.	2B/	.
1D	-ba-	.	.	.	.	1A	-ba-
.	.	2F#i/	-ba-	.	.	.	.
=23	=23	=23	=23	=23	=23	=23	=23
[0.GGl	-oth.	[0.Gl	-oth.	0.d_	.	0.G	-oth.
=24	=24	=24	=24	=24	=24	=24	=24
0.GG]	.	0.G]	.	0.d]	.	0.gl	.
!!LO:LB:i:g=z
=25||	=25||	=25||	=25||	=25||	=25||	=25||	=25||
*>B	*>B	*>B	*>B	*>B	*>B	*>B	*>B
*clefF4	*	*clefGv2	*	*clefGv2	*	*clefG2	*
*k[]	*	*k[]	*	*k[]	*	*k[]	*
*M2/1	*	*M2/1	*	*M2/1	*	*M2/1	*
*met(C|)	*	*met(C|)	*	*met(C|)	*	*met(C|)	*
!	!	!	!	!	!	!LO:TX:Z=46:t=Canon at the lower fourth (S-->T, 2 breves)	!
!!section: Pleni sunt celi
!!!OMD: Pleni sunt celi
0r	.	0r	.	0r	.	1a	Ple-
.	.	.	.	.	.	[1a	-ni
=26	=26	=26	=26	=26	=26	=26	=26
0r	.	0r	.	0r	.	2a/]	.
.	.	.	.	.	.	4g/	.
.	.	.	.	.	.	4f/	.
.	.	.	.	.	.	2a/	.
.	.	.	.	.	.	[2g/	sunt
=27	=27	=27	=27	=27	=27	=27	=27
0r	.	1e	Ple-	0r	.	4g/]	.
.	.	.	.	.	.	4f/	.
.	.	.	.	.	.	4e/	.
.	.	.	.	.	.	4d/	.
.	.	[1e	-ni	.	.	1c	.
=28	=28	=28	=28	=28	=28	=28	=28
0r	.	2e\]	.	0r	.	2r	.
.	.	4d\	.	.	.	1g	cae-
.	.	4c\	.	.	.	.	.
.	.	2e\	.	.	.	.	.
.	.	[2d\	sunt	.	.	2f/	.
=29	=29	=29	=29	=29	=29	=29	=29
0r	.	4d\]	.	0r	.	2a/	.
.	.	4c\	.	.	.	.	.
.	.	4B\	.	.	.	1g	.
.	.	4A/	.	.	.	.	.
.	.	1G	.	.	.	.	.
.	.	.	.	.	.	4f/	.
.	.	.	.	.	.	4e/	.
=30	=30	=30	=30	=30	=30	=30	=30
0r	.	2r	.	0r	.	1d	-li
.	.	1d	cae-	.	.	.	.
.	.	.	.	.	.	1a	et
.	.	2c\	.	.	.	.	.
=31	=31	=31	=31	=31	=31	=31	=31
0r	.	2e\	.	0r	.	2g/	ter-
.	.	1d	.	.	.	1f	.
.	.	4c\	.	.	.	4e/	.
.	.	4B\	.	.	.	4d/	.
=32	=32	=32	=32	=32	=32	=32	=32
0r	.	1A	-li	0r	.	0c	-ra
.	.	1e	et	.	.	.	.
=33	=33	=33	=33	=33	=33	=33	=33
0r	.	2d\	ter-	0r	.	1r	.
.	.	1c	.	.	.	.	.
.	.	.	.	.	.	[1g	et
.	.	4B\	.	.	.	.	.
.	.	4A/	.	.	.	.	.
=34	=34	=34	=34	=34	=34	=34	=34
0r	.	0G	-ra	0r	.	2g/]	.
.	.	.	.	.	.	4f/	.
.	.	.	.	.	.	4e/	.
.	.	.	.	.	.	2d/	.
.	.	.	.	.	.	2g/	ter-
=35	=35	=35	=35	=35	=35	=35	=35
0r	.	1r	.	0r	.	2f/	.
.	.	.	.	.	.	2d/	.
.	.	[1d	et	.	.	2f/	.
.	.	.	.	.	.	2g/	.
=36	=36	=36	=36	=36	=36	=36	=36
0r	.	2d\]	.	0r	.	1.a	.
.	.	4c\	.	.	.	.	.
.	.	4B\	.	.	.	.	.
.	.	2A/	.	.	.	.	.
.	.	2d\	ter-	.	.	2f/	.
=37	=37	=37	=37	=37	=37	=37	=37
0r	.	2c\	.	0r	.	2g/	.
.	.	2A/	.	.	.	1a	.
.	.	2c\	.	.	.	.	.
.	.	2d\	.	.	.	2f/	.
=38	=38	=38	=38	=38	=38	=38	=38
0r	.	1.e	.	0r	.	2g/	.
.	.	.	.	.	.	2e/	.
.	.	.	.	.	.	2g/	.
.	.	2c\	.	.	.	2a/	.
=39	=39	=39	=39	=39	=39	=39	=39
0r	.	2d\	.	0r	.	2f/	.
.	.	1e	.	.	.	2g/	.
.	.	.	.	.	.	1e	-ra,
.	.	2c\	.	.	.	.	.
=40	=40	=40	=40	=40	=40	=40	=40
0r	.	2d\	.	0r	.	2r	.
.	.	2B\	.	.	.	2g/	et
.	.	2d\	.	.	.	2f/	ter-
.	.	2e\	.	.	.	[2g/	.
=41	=41	=41	=41	=41	=41	=41	=41
0r	.	2c\	.	0r	.	4g/]	.
.	.	.	.	.	.	4e/	.
.	.	2d\	.	.	.	2f/	.
.	.	1B	-ra,	.	.	2g/	.
.	.	.	.	.	.	[2d/	.
=42	=42	=42	=42	=42	=42	=42	=42
0r	.	2r	.	0r	.	4d/]	.
.	.	.	.	.	.	4e/	.
.	.	2d\	et	.	.	4f/	.
.	.	.	.	.	.	4g/	.
.	.	2c\	ter-	.	.	1a	-ra
.	.	[2d\	.	.	.	.	.
=43	=43	=43	=43	=43	=43	=43	=43
0r	.	4d\]	.	0r	.	2r	.
.	.	4B\	.	.	.	.	.
.	.	2c\	.	.	.	2a/	glo-
.	.	2d\	.	.	.	2f/	-ri-
.	.	[2A/	.	.	.	2a/	-a
=44	=44	=44	=44	=44	=44	=44	=44
0r	.	4A/]	.	0r	.	2g/	tu-
.	.	4B\	.	.	.	.	.
.	.	4c\	.	.	.	1e	-a,
.	.	4d\	.	.	.	.	.
.	.	1e	-ra	.	.	.	.
.	.	.	.	.	.	2g/	glo-
=45	=45	=45	=45	=45	=45	=45	=45
0r	.	2r	.	0r	.	2f/	-ri-
.	.	2e\	glo-	.	.	2g/	-a
.	.	2c\	-ri-	.	.	2e/	tu-
.	.	2e\	-a	.	.	2g/	.
=46	=46	=46	=46	=46	=46	=46	=46
0r	.	2d\	tu-	0r	.	2f/	.
.	.	1B	-a,	.	.	2g/	.
.	.	.	.	.	.	1d	-a,
.	.	2d\	glo-	.	.	.	.
=47	=47	=47	=47	=47	=47	=47	=47
0r	.	2c\	-ri-	0r	.	1a	glo-
.	.	2d\	-a	.	.	.	.
.	.	2B\	tu-	.	.	2g/	-ri-
.	.	2d\	.	.	.	2f/	-a
=48	=48	=48	=48	=48	=48	=48	=48
0r	.	2c\	.	0r	.	2e/	tu-
.	.	2d\	.	.	.	2d/	.
.	.	1A	-a,	.	.	1a	-a,
=49	=49	=49	=49	=49	=49	=49	=49
0r	.	1e	glo-	0r	.	1.g	glo-
.	.	2d\	-ri-	.	.	.	.
.	.	2c\	-a	.	.	2a/	-ri-
=50	=50	=50	=50	=50	=50	=50	=50
0r	.	2B\	tu-	0r	.	2g/	-a
.	.	2A/	.	.	.	2.a/	tu-
.	.	1e	-a,	.	.	.	.
.	.	.	.	.	.	4g/	.
.	.	.	.	.	.	2e/	.
=51	=51	=51	=51	=51	=51	=51	=51
0r	.	1.d	glo-	0r	.	1f	-a,
.	.	.	.	.	.	1g	glo-
.	.	2e\	-ri-	.	.	.	.
=52	=52	=52	=52	=52	=52	=52	=52
0r	.	2d\	-a	0r	.	2f/	-ri-
.	.	2.e\	tu-	.	.	2.g/	-a
.	.	4d\	.	.	.	4f/	.
.	.	2B\	.	.	.	2d/	.
=53	=53	=53	=53	=53	=53	=53	=53
0r	.	1c	-a,	0r	.	1e	.
.	.	1d	glo-	.	.	4d/	tu-
.	.	.	.	.	.	4e/	.
.	.	.	.	.	.	4f/	.
.	.	.	.	.	.	4g/	.
=54	=54	=54	=54	=54	=54	=54	=54
0r	.	2c\	-ri-	0r	.	2a/	.
.	.	2.d\	-a	.	.	2.b\	.
.	.	4c\	.	.	.	4a/	.
.	.	2A/	.	.	.	[2a/	.
=55	=55	=55	=55	=55	=55	=55	=55
0r	.	1B	tu-	0r	.	2a/]	.
.	.	.	.	.	.	2g#i/	.
!	!	!LO:N:vis=1	!	!	!	!	!
.	.	1A	-a.	.	.	1al	-a.-
!!LO:LB:i:g=z
=56||	=56||	=56||	=56||	=56||	=56||	=56||	=56||
*>C	*>C	*>C	*>C	*>C	*>C	*>C	*>C
*clefF4	*	*clefGv2	*	*clefGv2	*	*clefG2	*
*k[]	*	*k[]	*	*k[]	*	*k[]	*
*M3/1	*	*M3/1	*	*M3/1	*	*M3/1	*
*met(C|3)	*	*met(C|3)	*	*met(C|3)	*	*met(C|3)	*
!!section: Osanna
!!!OMD: Osanna
!LO:TX:Z=35:X=-40:t=Canon at the upper fifth (B-->T, 2 breves)	!	!	!	!	!	!	!
!LO:TX:Z=13:X=-40:t=Tenor. In diapente	!	!	!	!	!	!	!
0.r	.	0.r	.	1A	O-	1.a	-O-
.	.	.	.	1c	.	.	.
.	.	.	.	.	.	2g/	.
.	.	.	.	1d	.	1f	.
=57	=57	=57	=57	=57	=57	=57	=57
0.r	.	0.r	.	1.e	-san-	1e	-san-
.	.	.	.	.	.	0f	.
.	.	.	.	2c\	.	.	.
.	.	.	.	1d	.	.	.
=58	=58	=58	=58	=58	=58	=58	=58
1.A	O-	0.r	.	1e	.	1e	.
.	.	.	.	1c	.	1.a	.
2G\	.	.	.	.	.	.	.
1F	.	.	.	1d	.	.	.
.	.	.	.	.	.	2f/	.
=59	=59	=59	=59	=59	=59	=59	=59
1E	-san-	0.r	.	1e	.	1g	.
0F	.	.	.	1c	.	0a	.
.	.	.	.	1d	.	.	.
=60	=60	=60	=60	=60	=60	=60	=60
0E	-na,	1.e	O-	1e	-na,	0g	-na,
.	.	.	.	1B	o-	.	.
.	.	2d\	.	.	.	.	.
1r	.	1c	.	1e	.	1a	o-
=61	=61	=61	=61	=61	=61	=61	=61
0.r	.	1B	-san-	1d	-san-	1b	-san-
.	.	0c	.	1e	.	1g	.
.	.	.	.	1c	.	1a	.
=62	=62	=62	=62	=62	=62	=62	=62
1.G	O-	0B	-na,	1d	.	1b	.
.	.	.	.	1B	.	0g	.
2F\	.	.	.	.	.	.	.
1E	.	1r	.	1c	.	.	.
=63	=63	=63	=63	=63	=63	=63	=63
1D	-san-	0.r	.	1.d	.	1f	.
0E	.	.	.	.	.	1g	.
.	.	.	.	2B\	.	.	.
.	.	.	.	1c	.	1e	.
=64	=64	=64	=64	=64	=64	=64	=64
0D	-na,	1.d	O-	1d	-na,	0f	-na,
.	.	.	.	1A	o-	.	.
.	.	2c\	.	.	.	.	.
1r	.	1B	.	1d	.	1g	o-
=65	=65	=65	=65	=65	=65	=65	=65
0.r	.	1A	-san-	1c	-san-	1.a	-san-
.	.	0B	.	1d	.	.	.
.	.	.	.	.	.	2f/	.
.	.	.	.	1B	.	1g	.
=66	=66	=66	=66	=66	=66	=66	=66
1.F	O-	0A	-na,	1c	.	1.a	.
.	.	.	.	1A	.	.	.
2E\	.	.	.	.	.	2g/	.
1D	.	1r	.	1B	.	1f	.
=67	=67	=67	=67	=67	=67	=67	=67
1C	-san-	0.r	.	1.c	.	1e	.
0D	.	.	.	.	.	1f	.
.	.	.	.	2A/	.	.	.
.	.	.	.	1B	.	1d	.
=68	=68	=68	=68	=68	=68	=68	=68
0C	-na,	1.c	O-	1c	-na,	0e	-na,
.	.	.	.	1e	o-	.	.
.	.	2B\	.	.	.	.	.
1D	o-	1A	.	1d	.	1f	o-
=69	=69	=69	=69	=69	=69	=69	=69
1E	-san-	1G	-san-	1B	-san-	1.g	-san-
1C	.	0A	.	1e	.	.	.
.	.	.	.	.	.	2e/	.
1D	.	.	.	1d	.	1f	.
=70	=70	=70	=70	=70	=70	=70	=70
0E	.	0G	.	1B	.	0g	.
.	.	.	.	1c	.	.	.
1D	-na,	1A	.	1d	.	1f	.
=71	=71	=71	=71	=71	=71	=71	=71
0.r	.	1B	.	1G	.	1d	.
.	.	1G	.	1B	.	0e	.
.	.	1A	.	1c	.	.	.
=72	=72	=72	=72	=72	=72	=72	=72
0G	O-	0B	.	1d	-na,	1d	-na,
.	.	.	.	1g	o-	1b	o-
1A	.	1A	-na,	1f	.	1cc	.
=73	=73	=73	=73	=73	=73	=73	=73
1B-i	-san-	0.r	.	1d	-san-	1.dd	-san-
1G	.	.	.	0e	.	.	.
.	.	.	.	.	.	2b\	.
1A	.	.	.	.	.	1cc	.
=74	=74	=74	=74	=74	=74	=74	=74
0B-i	.	0d	O-	1d	.	0dd	.
.	.	.	.	1G	.	.	.
1A	.	1e	.	1c	.	1cc	.
=75	=75	=75	=75	=75	=75	=75	=75
1F	.	1f	-san-	1d	.	1a	.
0G	.	1d	.	0B	.	0b	.
.	.	1e	.	.	.	.	.
=76	=76	=76	=76	=76	=76	=76	=76
0F	-na,	0f	.	1c	-na,	0a	-na,
.	.	.	.	1d	o-	.	.
1G	o-	1e	.	1B	.	1b	o-
=77	=77	=77	=77	=77	=77	=77	=77
1A	-san-	1c	.	1A	-san-	1.cc	-san-
1F	.	0d	.	1a	.	.	.
.	.	.	.	.	.	2a/	.
1G	.	.	.	1g	.	1b	.
=78	=78	=78	=78	=78	=78	=78	=78
0A	-na,	0c	.	0e	.	1cc	.
.	.	.	.	.	.	1ee	.
1r	.	1d	.	1f	.	1dd	.
=79	=79	=79	=79	=79	=79	=79	=79
0.r	.	1e	.	1g	.	1b	.
.	.	1c	.	1e	.	1cc	.
.	.	1d	.	1f	.	1a	.
=80	=80	=80	=80	=80	=80	=80	=80
1.c	O-	0e	-na,	1g	.	1g	-na,
.	.	.	.	1e	.	0cc	o-
2B\	.	.	.	.	.	.	.
1A	.	1r	.	1f	.	.	.
=81	=81	=81	=81	=81	=81	=81	=81
1G	-san-	0.r	.	1g	-na,	1b	-san-
1A	.	.	.	1c	o-	1cc	.
1F	.	.	.	1d	.	1a	.
=82	=82	=82	=82	=82	=82	=82	=82
0E	-na,	1.g	O-	1.e	-san-	1g	.
.	.	.	.	.	.	1b	.
.	.	2f\	.	2d\	.	.	.
1r	.	1e	.	1c	.	1cc	.
=83	=83	=83	=83	=83	=83	=83	=83
1G	O-	1d	-san-	1.B	.	1dd	.
1E	.	1e	.	.	.	1g	.
.	.	.	.	2c\	.	.	.
1F	.	1c	.	1A	.	1a	.
=84	=84	=84	=84	=84	=84	=84	=84
1G	-san-	0B	-na,	1d	.	1b	.
1E	.	.	.	1e	.	1g	.
1F	.	1r	.	1c	.	1a	.
=85	=85	=85	=85	=85	=85	=85	=85
1.G	.	1d	O-	0B	-na,	1b	.
.	.	1B	.	.	.	0g	.
2F\	.	.	.	.	.	.	.
1E	.	1c	.	1G	o-	.	.
=86	=86	=86	=86	=86	=86	=86	=86
0D	-na,	1d	-san-	1A	-san-	1f	.
.	.	1B	.	1B	.	1d	.
1r	.	1c	.	1A	.	1e	.
=87	=87	=87	=87	=87	=87	=87	=87
1D	in	1.d	.	1B	-na,	1d	-na,
1F	.	.	.	1A	in	1a	in
.	.	2c\	.	.	.	.	.
1G	ex-	1B	.	1d	ex-	1b	ex-
=88	=88	=88	=88	=88	=88	=88	=88
1A	-cel-	0A	-na,	1c	-cel-	1cc	-cel-
1F	.	.	.	1f	.	1a	.
1G	.	1r	.	1d	.	1b	.
=89	=89	=89	=89	=89	=89	=89	=89
1.A	.	1A	in	1c	.	1.cc	.
.	.	1c	.	1.A	.	.	.
2G\	.	.	.	.	.	2b\	.
1F	.	1d	ex-	.	.	1a	.
.	.	.	.	2B\	.	.	.
=90	=90	=90	=90	=90	=90	=90	=90
1E	.	1e	-cel-	1c	.	1g	.
0F	.	1c	.	0A	.	0a	.
.	.	1d	.	.	.	.	.
=91	=91	=91	=91	=91	=91	=91	=91
1E	-sis,	1.e	.	1B	-sis,	1g	-sis,
1.A	in	.	.	0c	ex-	1cc	in
.	.	2d\	.	.	.	.	.
.	.	1c	.	.	.	1a	ex-
2G\	ex-	.	.	.	.	.	.
=92	=92	=92	=92	=92	=92	=92	=92
1G	-cel-	1B	.	1d	-cel-	1b	-cel-
1E	.	0c	.	1e	.	1g	.
1F	.	.	.	1A	.	1a	.
=93	=93	=93	=93	=93	=93	=93	=93
0G	.	1B	-sis,	1G	.	1b	.
.	.	1.e	in	1.B	.	1g	.
1F	.	.	.	.	.	1a	.
.	.	2d\	ex-	2A/	.	.	.
=94	=94	=94	=94	=94	=94	=94	=94
1D	.	1d	-cel-	0A	.	1f	.
0E	.	1B	.	.	.	0g	.
.	.	1c	.	1G	.	.	.
=95	=95	=95	=95	=95	=95	=95	=95
1D	-sis,	0d	-sis,	1A	-sis,	1f	-sis,
1G	in-	.	.	1G	in	1b-i	in
1A	-ex-	1c	ex-	1c	ex-	1a	ex-
=96	=96	=96	=96	=96	=96	=96	=96
1F	-cel-	1A	-cel-	1d	-cel-	0a	-cel-
0E	.	0B	.	0e	.	.	.
.	.	.	.	.	.	1g#i	.
=97	=97	=97	=97	=97	=97	=97	=97
0.Al	-sis.	0.Al	-sis.	0.cl	-sis.	0.al	-sis.
!!LO:LB:i:g=z
!!LO:TX:rj:i:t=fine
=98||	=98||	=98||	=98||	=98||	=98||	=98||	=98||
*>D	*>D	*>D	*>D	*>D	*>D	*>D	*>D
*clefF4	*	*clefGv2	*	*clefGv2	*	*clefG2	*
*k[]	*	*k[]	*	*k[]	*	*k[]	*
*M2/1	*	*M2/1	*	*M2/1	*	*M2/1	*
*met(C|)	*	*met(C|)	*	*met(C|)	*	*met(C|)	*
!!section: Benedictus
!!!OMD: Benedictus
!	!	!	!	!	!	!LO:TX:Z=12:t=Mensuration canon at the fifth (S/A)	!
!	!	!	!	!	!	!LO:TX:Z=32:X=110:t=Benedictus in diapente. C. Qui venit in diapason. In nomine in diapente.	!
0r	.	0r	.	[0d	Be-	1.a	Be-
.	.	.	.	.	.	2g/	-ne-
=99	=99	=99	=99	=99	=99	=99	=99
0r	.	0r	.	1d]	.	1f	-dic-
.	.	.	.	1c	-ne-	2e/	-tus,
.	.	.	.	.	.	[2a/	be-
=100	=100	=100	=100	=100	=100	=100	=100
0r	.	0r	.	0B	-dic-	2a/]	.
.	.	.	.	.	.	4g#i/	.
.	.	.	.	.	.	4f#i/	.
.	.	.	.	.	.	1g#i	.
=101	=101	=101	=101	=101	=101	=101	=101
0r	.	0r	.	1A	-tus,	2a/	.
.	.	.	.	.	.	2cc\	-ne-
.	.	.	.	[1d	be-	2b\	-dic-
.	.	.	.	.	.	[2a/	.
=102	=102	=102	=102	=102	=102	=102	=102
0r	.	0r	.	1d]	.	4a/]	.
.	.	.	.	.	.	4g/	.
.	.	.	.	.	.	2f/	.
.	.	.	.	2c\	.	2e/	.
.	.	.	.	2B\	.	[2g/	.
=103	=103	=103	=103	=103	=103	=103	=103
0r	.	0r	.	0c	.	4g/]	.
.	.	.	.	.	.	4f/	.
.	.	.	.	.	.	4e/	.
.	.	.	.	.	.	4d/	.
.	.	.	.	.	.	1e	.
=104	=104	=104	=104	=104	=104	=104	=104
0r	.	0r	.	1d	.	2d/	-tus,
.	.	.	.	.	.	2.a/	be-
.	.	.	.	1f	-ne-	.	.
.	.	.	.	.	.	4b\	-ne-
.	.	.	.	.	.	[2cc\	-dic-
=105	=105	=105	=105	=105	=105	=105	=105
0r	.	0r	.	1e	-dic-	4cc\]	.
.	.	.	.	.	.	4b\	.
.	.	.	.	.	.	4a/	.
.	.	.	.	.	.	4g/	.
.	.	.	.	[1d	.	2f/	.
.	.	.	.	.	.	[2b-i\	.
=106	=106	=106	=106	=106	=106	=106	=106
0r	.	0r	.	2d\]	.	4b-\]	.
.	.	.	.	.	.	4a/	.
.	.	.	.	2c\	.	1a	.
.	.	.	.	1B-i	.	.	.
.	.	.	.	.	.	2g/	.
=107	=107	=107	=107	=107	=107	=107	=107
0r	.	0r	.	0Al	-tus.	0al	-tus.
!!LO:LB:i:g=z
=108||	=108||	=108||	=108||	=108||	=108||	=108||	=108||
*>E	*>E	*>E	*>E	*>E	*>E	*>E	*>E
*clefF4	*	*clefGv2	*	*clefGv2	*	*clefG2	*
*k[]	*	*k[]	*	*k[]	*	*k[]	*
*M2/1	*	*M2/1	*	*M2/1	*	*M2/1	*
*met(C|)	*	*met(C|)	*	*met(C|)	*	*met(C|)	*
!!section: Qui venit
!!!OMD: Qui venit
!	!	!LO:TX:Z=10:X=-40:t=T = Benedictus S, down an octave	!	!	!	!	!
0r	.	[0A	Qui	0A	Qui	0r	.
=109	=109	=109	=109	=109	=109	=109	=109
0r	.	1A]	.	1c	ve-	0r	.
.	.	1G	.	1B	.	.	.
=110	=110	=110	=110	=110	=110	=110	=110
0r	.	0F	ve-	2A/	.	0r	.
.	.	.	.	1c	.	.	.
.	.	.	.	4B\	.	.	.
.	.	.	.	4A/	.	.	.
=111	=111	=111	=111	=111	=111	=111	=111
0r	.	1E	.	2G/	.	0r	.
.	.	.	.	2.c\	.	.	.
.	.	[1A	.	.	.	.	.
.	.	.	.	4d\	.	.	.
.	.	.	.	[2e\	.	.	.
=112	=112	=112	=112	=112	=112	=112	=112
0r	.	1A]	.	2e\]	.	0r	.
.	.	.	.	4d\	.	.	.
.	.	.	.	4c\	.	.	.
.	.	2G/	.	2B\	.	.	.
.	.	2F/	.	[2d\	.	.	.
=113	=113	=113	=113	=113	=113	=113	=113
0r	.	0G	.	4d\]	.	0r	.
.	.	.	.	4c\	.	.	.
.	.	.	.	4B\	.	.	.
.	.	.	.	4A/	.	.	.
.	.	.	.	1B	.	.	.
=114	=114	=114	=114	=114	=114	=114	=114
0r	.	1A	-nit,	2A/	-nit,	0r	.
.	.	.	.	2D/	qui	.	.
.	.	1c	qui	2E/	.	.	.
.	.	.	.	2F/	.	.	.
=115	=115	=115	=115	=115	=115	=115	=115
0r	.	1B	ve-	3G/V	ve-	0r	.
.	.	.	.	3D/	.	.	.
.	.	.	.	3E/Z	.	.	.
.	.	[1A	.	4F/	.	.	.
.	.	.	.	4G/	.	.	.
.	.	.	.	4A/	.	.	.
.	.	.	.	4B\	.	.	.
=116	=116	=116	=116	=116	=116	=116	=116
0r	.	2A/]	.	4c\	.	0r	.
.	.	.	.	4B\	.	.	.
.	.	2G/	.	1e	.	.	.
.	.	1F	.	.	.	.	.
.	.	.	.	2d\	.	.	.
=117	=117	=117	=117	=117	=117	=117	=117
0r	.	0El	-nit.	0el	-nit.	0r	.
!!LO:LB:i:g=z
=118||	=118||	=118||	=118||	=118||	=118||	=118||	=118||
*>F	*>F	*>F	*>F	*>F	*>F	*>F	*>F
*clefF4	*	*clefGv2	*	*clefGv2	*	*clefG2	*
*k[]	*	*k[]	*	*k[]	*	*k[]	*
*M2/1	*	*M2/1	*	*M2/1	*	*M2/1	*
*met(C)	*	*met(C)	*	*met(C)	*	*met(C)	*
!!section: In nomine
!!!OMD: In nomine
!	!	!LO:TX:Z=22:X=-40:t=T = Benedictus S down a fifth	!	!	!	!	!
1D	In	[0d	In	0r	.	0r	.
1F	.	.	.	.	.	.	.
=119	=119	=119	=119	=119	=119	=119	=119
1G	no-	1d]	.	0r	.	0r	.
2A\	.	1c	.	.	.	.	.
2F\	.	.	.	.	.	.	.
=120	=120	=120	=120	=120	=120	=120	=120
4G\	.	0B	no-	0r	.	0r	.
4F\	.	.	.	.	.	.	.
4E\	.	.	.	.	.	.	.
4D\	.	.	.	.	.	.	.
4E\	.	.	.	.	.	.	.
4D\	.	.	.	.	.	.	.
[2d\	.	.	.	.	.	.	.
=121	=121	=121	=121	=121	=121	=121	=121
2d\]	.	1A	.	0r	.	0r	.
2c#i\	-mi-	.	.	.	.	.	.
2d\	-ne,	[1d	.	.	.	.	.
[2D\	in	.	.	.	.	.	.
=122	=122	=122	=122	=122	=122	=122	=122
4D\]	.	1d]	.	0r	.	0r	.
4E\	.	.	.	.	.	.	.
4F\	.	.	.	.	.	.	.
4G\	.	.	.	.	.	.	.
2A\	.	2c\	.	.	.	.	.
2G\	.	2B\	.	.	.	.	.
=123	=123	=123	=123	=123	=123	=123	=123
2E\	no-	0c	-mi-	0r	.	0r	.
2F\	-mi-	.	.	.	.	.	.
2E\	-ne	.	.	.	.	.	.
[2F\	Do-	.	.	.	.	.	.
=124	=124	=124	=124	=124	=124	=124	=124
4F\]	.	1d	-ne	0r	.	0r	.
4E\	.	.	.	.	.	.	.
4D\	.	.	.	.	.	.	.
4C/	.	.	.	.	.	.	.
1D	.	1f	Do-	.	.	.	.
=125	=125	=125	=125	=125	=125	=125	=125
4C/	.	1e	.	0r	.	0r	.
4D\	.	.	.	.	.	.	.
4E\	.	.	.	.	.	.	.
4F\	.	.	.	.	.	.	.
4G\	.	[1d	.	.	.	.	.
4F\	.	.	.	.	.	.	.
4G\	.	.	.	.	.	.	.
4A\	.	.	.	.	.	.	.
=126	=126	=126	=126	=126	=126	=126	=126
4B\	.	2d\]	.	0r	.	0r	.
4A\	.	.	.	.	.	.	.
1A	.	2c\	.	.	.	.	.
.	.	1B	-mi-	.	.	.	.
2G#i\	-mi-	.	.	.	.	.	.
=127	=127	=127	=127	=127	=127	=127	=127
0Al	-ni.	0Al	-ni.	0r	.	0r	.
!!LO:TX:i:Y=40:rj:t=Osanna ut supra
=||	=||	=||	=||	=||	=||	=||	=||
*-	*-	*-	*-	*-	*-	*-	*-
!!!RDF**kern: l=long note in original notation
!!!RDF**kern: i=editorial accidental
!!!RDF**kern: V=start of tuplet marker
!!!RDF**kern: Z=end of tuplet marker
!!!ENC: Jesse Rodin; Victoria Chang 2011/04/07
!!!END: 2011/04/07/
!!!SMS: Davison, Missa sine nomine
!!!EED: Jesse Rodin
!!!EEV: 2012/04/24/
!!attribution-level@Jos: 1 (secure)
!!!ONB: Translated from MusicXML and edited on 2011/04/15/ by Craig Sapp
!!muse2ps: T^@{OPR}^u^@{ONM}{. }@{OTL}^C^@{COM}\n@{SCT}^i2I100v85,90,85,130Q16
!!!ONB: April 2013 Concert
